X: 300
T:River of Ponds
R:Jig
Z:Gerry Strong from Rufus Guinchard
M:6/8
L:1/8
K:D
d2 c B2 A|Bcd ~A3|ABA A2 G|F2 G A3|d2 c B2 A|Bcd A2 A|Bcd f2 e|1d3 d3:|2
d3
d2 e|
|:~f3 fef|agf e2 A|Bcd e2 f|e2 d cBA|~f3 fef|agf e2 A|Bcd e2 c|1d3 d2 e:
|2d3
d3||
<end>
<start>
